!!!OTL: Ave martir gloriosa
**kern
*staff1
=1-
*clefF4
*k[b-]
*met(c|)
*M2/2
0F
=2
0C
=3
1F
1F
=4
1D
1C
=5
0G
=6
0C;
!!linebreak:original
=7
1F
1G
=8
1F
1F
=9
1BB-
1F
=10
0G
=11
0D;
=12
!!linebreak:original
1F
1D
=13
1C
1F
=14
1D
1BB-
=15
0C
=16
0FF
=17
!!linebreak:original
1F
1F
=18
1D
1C
=19
1F
1G
=20
0C
=21
!!linebreak:original
0C
1C
0F
1F
=22
1B-
1B-
=23
0F
=24
0F;
!!pagebreak:original
=25
1F
1C
=26
1F
1F
=27
1D
1C
=28
0G
=29
0C;
=30
!!linebreak:original
2BB-/
2C/
2D\
2E\
=31
1F
1G
=32
1D
1G
=33
1.F
2E\
=34
0C;
!!linebreak:original
=35
0F
=36
2BB-/
2C/
2D\
2E\
=37
0F
=38
1D
2BB-/
2D\
=39
0C
=40
0FF
==
*-
!!title: @{OTL}, @{GTL}, ed. @{ENC}
!!!pag:
!!!GTL: Hymnbook D
!!!EFL: 
!!!YEM: Creative Commons CC/BY/NC/SA 4.0
!!!ENC: Marcin Konik
!!!END: 2015-0m-dd
!!!EED: Marcin Konik
!!!EEV: 
!!!ONB: Encoded in vim by Marcin Konik
!!!CharacterEncoding: utf-8
!!!RDF**kern: l=long note in original notation
!!!RDF**kern: i=editorial accidental
!!muse2ps: z14jc180F
!!!COM: Anonim
!!!CDT: [?]
!!!TXO: Polish
!!!ODT: 
!!!GTL: Hymnbook D
!!!ARL: Opactwo św. Wojciecha, Staniątki 
!!!voices:	1
